packages/foundations/assets/icons/functional/images/transportation/bus_12.svg

<svg width="12" height="12" viewBox="0 0 12 12" fill="none" xmlns="http://www.w3.org/2000/svg">
<g clip-path="url(#clip0_232_485)">
<path fill-rule="evenodd" clip-rule="evenodd" d="M8.06162 1.2C8.63989 1.2 8.94797 1.25949 9.26902 1.43119C9.56913 1.59169 9.80826 1.83081 9.96876 2.13093C10.1034 2.38274 10.1691 2.62657 10.1911 2.99906L10.8 3V5.4H10.2V8.83083C10.2 9.12122 10.1653 9.37839 10.0489 9.57601C9.93247 9.77363 9.77387 9.94063 9.59995 10.0344V10.8H8.09995V10.2H3.89995V10.8H2.39995L2.39997 10.0358C2.20876 9.92775 2.05491 9.7703 1.951 9.57601C1.85277 9.39232 1.81079 9.2156 1.80184 8.95026L1.79995 5.4H1.19995V3L1.80878 2.99906C1.83083 2.62657 1.89647 2.38274 2.03114 2.13093C2.19165 1.83081 2.43077 1.59169 2.73088 1.43119C3.02518 1.2738 3.35164 1.2 3.83662 1.20127L8.06162 1.2ZM3.88807 7.65H2.98807V8.55H3.88807V7.65ZM9.05304 7.65H8.15304V8.55H9.05304V7.65ZM8.16329 2.40059C7.94067 2.40006 4.02976 2.40059 3.83662 2.40059C3.64348 2.40059 3.38518 2.40059 3.19597 2.56205C3.00675 2.72352 3.00197 3.00127 3.00054 3.23666C2.99959 3.39359 3 4.46437 3.00177 6.44899C4.12899 6.53574 5.12861 6.57903 5.99995 6.57903C6.8713 6.57903 7.87091 6.53574 8.99813 6.44899C8.99895 4.47592 8.99936 3.40515 8.99936 3.23666C8.99936 2.98394 8.99426 2.72299 8.80712 2.56205C8.61999 2.40112 8.3859 2.40112 8.16329 2.40059ZM7.79995 3V4.02H4.19995V3H7.79995Z" fill="#1A1C1F"/>
</g>
<defs>
<clipPath id="clip0_232_485">
<rect width="12" height="12" fill="white"/>
</clipPath>
</defs>
</svg>

<svg xmlns="http://www.w3.org/2000/svg" width="12" height="12" fill="none"><g clip-path="url(#a)"><path fill="#1A1C1F" fill-rule="evenodd" d="M8.062 1.2c.578 0 .886.06 1.207.231.3.16.54.4.7.7.134.252.2.496.222.868L10.8 3v2.4h-.6v3.43c0 .291-.035.548-.151.746a1.2 1.2 0 0 1-.449.458v.766H8.1v-.6H3.9v.6H2.4v-.764a1.15 1.15 0 0 1-.449-.46c-.098-.184-.14-.36-.15-.626L1.8 5.4h-.6V3h.609c.022-.373.087-.617.222-.87.16-.3.4-.538.7-.699.294-.157.62-.231 1.106-.23zM3.888 7.65h-.9v.9h.9zm5.165 0h-.9v.9h.9zm-.89-5.25H3.837c-.194 0-.452 0-.641.162-.19.162-.194.44-.195.675v3.212q1.692.13 2.999.13 1.306 0 2.998-.13L9 3.237c0-.253-.005-.514-.192-.675-.187-.16-.421-.16-.644-.161M7.8 3v1.02H4.2V3z" clip-rule="evenodd"/></g><defs><clipPath id="a"><path fill="#fff" d="M0 0h12v12H0z"/></clipPath></defs></svg>
